giving/bank-pending.svg

<svg xmlns="http://www.w3.org/2000/svg" viewBox="0 0 16 16"><defs><style>.cls-1{fill:#010101}</style></defs><title>bank-pending</title><g id="Layer_1" data-name="Layer 1"><path class="cls-1" d="M12.557 11.179V9.476h-.985v2.307l1.491.669.444-.864-.95-.409z"/><path class="cls-1" d="M12.117 7.435a3.915 3.915 0 1 0 3.915 3.915 3.915 3.915 0 0 0-3.915-3.915zm0 6.7A2.784 2.784 0 1 1 14.9 11.35a2.784 2.784 0 0 1-2.783 2.784zm-4.25-7.694a1.975 1.975 0 0 0-.59 3.861 4.883 4.883 0 0 1 .468-1.236.662.662 0 0 1-.545-.646.671.671 0 0 1 .671-.67.647.647 0 0 1 .559.325 4.967 4.967 0 0 1 .985-.867 1.96 1.96 0 0 0-1.548-.767zm-3.981-.487v4.933h1.266V5.954zm-1.833 0v4.933h1.265V5.954zm-.458 6.766h5.782a4.89 4.89 0 0 1-.206-1.266H1.595zm14.054-7.657L7.941.35a.173.173 0 0 0-.183 0L.083 5.063a.175.175 0 0 0 .092.324h15.383a.175.175 0 0 0 .091-.324zM3.817 4.121L7.85 1.844l4.033 2.277zm6.754 2.544a4.9 4.9 0 0 1 1.267-.243v-.476h-1.267zM.359 13.287v1.266h8.008a4.941 4.941 0 0 1-.811-1.266zM12.4 6.423a4.9 4.9 0 0 1 1.267.245v-.722H12.4z"/></g></svg>

<svg xmlns="http://www.w3.org/2000/svg" viewBox="0 0 16 16"><defs><style>.cls-1{fill:#010101;}</style></defs><title>bank-pending</title><g id="Layer_1" data-name="Layer 1"><polygon class="cls-1" points="12.557 11.179 12.557 9.476 11.572 9.476 11.572 11.783 13.063 12.452 13.507 11.588 12.557 11.179"/><path class="cls-1" d="M12.117,7.435a3.915,3.915,0,1,0,3.915,3.915A3.915,3.915,0,0,0,12.117,7.435Zm0,6.7A2.784,2.784,0,1,1,14.9,11.35,2.784,2.784,0,0,1,12.117,14.134Z"/><path class="cls-1" d="M7.867,6.441a1.975,1.975,0,0,0-.59,3.861,4.883,4.883,0,0,1,.468-1.236A.662.662,0,0,1,7.2,8.42a.671.671,0,0,1,.671-.67.647.647,0,0,1,.559.325,4.967,4.967,0,0,1,.985-.867A1.96,1.96,0,0,0,7.867,6.441ZM3.886,5.954v4.933H5.152V5.954Zm-1.833,0v4.933H3.318V5.954ZM1.595,12.72H7.377a4.89,4.89,0,0,1-.206-1.266H1.595ZM15.649,5.063,7.941.35a.173.173,0,0,0-.183,0L.083,5.063a.175.175,0,0,0,.092.324H15.558a.175.175,0,0,0,.091-.324ZM3.817,4.121,7.85,1.844l4.033,2.277Zm6.754,2.544a4.9,4.9,0,0,1,1.267-.243V5.946H10.571ZM.359,13.287v1.266H8.367a4.941,4.941,0,0,1-.811-1.266ZM12.4,6.423a4.9,4.9,0,0,1,1.267.245V5.946H12.4Z"/></g></svg>
